X: 10061
M: 2/4
L: 1/16
K: A
[|\
(AB) A G (FG) A B | G4 E4 | A B c2 A B c2 |
d2 f2 f2 d B | G2 G G e e e2 | c4 A2 e2 |
a2 e e e2 c A | f2 f f Hf2 f f | e2 e e ^d2 d2 |
e4 HE4 | A B c2 A B c2 | B2 e2 E2 e e |
(AB) A G (FG) A B | G4 E4 | A B c2 A B c2 |



